build/images/g20.svg

<svg width="138" height="138" viewBox="0 0 138 138" fill="none" xmlns="http://www.w3.org/2000/svg">
<circle cx="69" cy="69" r="69" fill="#76BD5E"/>
<path d="M93.2916 92.848V98.8334C93.2916 100.712 92.5453 102.514 91.2169 103.842C89.8885 105.17 88.0869 105.917 86.2082 105.917H50.7916C48.913 105.917 47.1113 105.17 45.7829 103.842C44.4545 102.514 43.7083 100.712 43.7083 98.8334V85.7292C42.0791 85.0917 39.9895 84.6667 36.6249 84.6667C35.6856 84.6667 34.7848 84.2936 34.1206 83.6294C33.4564 82.9652 33.0833 82.0644 33.0833 81.125C33.0833 80.1857 33.4564 79.2849 34.1206 78.6207C34.7848 77.9565 35.6856 77.5834 36.6249 77.5834C39.5291 77.5834 41.8312 77.8667 43.7083 78.3271V71.5625C42.0791 70.925 39.9895 70.5 36.6249 70.5C35.6856 70.5 34.7848 70.1269 34.1206 69.4627C33.4564 68.7985 33.0833 67.8977 33.0833 66.9584C33.0833 66.0191 33.4564 65.1182 34.1206 64.454C34.7848 63.7898 35.6856 63.4167 36.6249 63.4167C39.5291 63.4167 41.8312 63.7 43.7083 64.1605V57.3959C42.0791 56.7584 39.9895 56.3334 36.6249 56.3334C35.6856 56.3334 34.7848 55.9602 34.1206 55.296C33.4564 54.6319 33.0833 53.731 33.0833 52.7917C33.0833 51.8524 33.4564 50.9516 34.1206 50.2874C34.7848 49.6232 35.6856 49.25 36.6249 49.25C39.5291 49.25 41.8312 49.5334 43.7083 49.9938V42.1667C43.7083 40.2881 44.4545 38.4864 45.7829 37.158C47.1113 35.8297 48.913 35.0834 50.7916 35.0834H86.2082C88.0869 35.0834 89.8885 35.8297 91.2169 37.158C92.5453 38.4864 93.2916 40.2881 93.2916 42.1667V49.8167C99.5957 50.9146 102.287 53.2521 102.889 53.8188C104.271 55.2 104.271 57.4667 102.889 58.848C101.508 60.2292 99.6666 60.1938 97.8603 58.848C97.8603 58.848 94.177 56.3334 86.2082 56.3334C81.7458 56.3334 78.8062 57.7855 75.4062 59.5209C71.7228 61.3271 67.5791 63.4167 61.4166 63.4167C60.1416 63.4167 58.9728 63.4167 57.8749 63.275V56.1563C58.9374 56.3334 60.1062 56.3334 61.4166 56.3334C65.8791 56.3334 68.8187 54.8813 72.2187 53.1813C75.902 51.3396 80.0812 49.25 86.2082 49.25V42.1667H50.7916V98.8334H86.2082V91.75C91.5207 91.75 93.1853 92.7771 93.2916 92.848ZM86.2082 63.4167C80.0812 63.4167 75.902 65.5063 72.2187 67.348C68.8187 69.048 65.8791 70.5 61.4166 70.5C60.1062 70.5 58.9374 70.5 57.8749 70.323V77.4417C58.9728 77.5834 60.1416 77.5834 61.4166 77.5834C67.5791 77.5834 71.7228 75.4938 75.4062 73.6875C78.8062 71.9875 81.7458 70.5 86.2082 70.5C94.177 70.5 97.8603 73.0146 97.8603 73.0146C99.6666 74.3959 101.508 74.3959 102.889 73.0146C104.271 71.6334 104.271 69.4021 102.889 67.9855C102.146 67.2417 97.7187 63.4167 86.2082 63.4167ZM86.2082 77.5834C80.0812 77.5834 75.902 79.673 72.2187 81.5146C68.8187 83.2146 65.8791 84.6667 61.4166 84.6667C60.1062 84.6667 58.9374 84.6667 57.8749 84.4896V91.6084C58.9728 91.75 60.1416 91.75 61.4166 91.75C67.5791 91.75 71.7228 89.6605 75.4062 87.8542C78.8062 86.1542 81.7458 84.6667 86.2082 84.6667C94.177 84.6667 97.8603 87.1813 97.8603 87.1813C99.6666 88.5625 101.508 88.5625 102.889 87.1813C104.271 85.8 104.271 83.5688 102.889 82.1521C102.146 81.4084 97.7187 77.5834 86.2082 77.5834Z" fill="white"/>
</svg>

<svg width="138" height="138" fill="none" xmlns="http://www.w3.org/2000/svg"><circle cx="69" cy="69" r="69" fill="#76BD5E"/><path d="M93.292 92.848v5.985a7.082 7.082 0 01-7.084 7.084H50.792a7.085 7.085 0 01-7.084-7.084V85.73c-1.629-.637-3.718-1.062-7.083-1.062a3.542 3.542 0 110-7.084c2.904 0 5.206.284 7.083.744v-6.764c-1.629-.638-3.718-1.063-7.083-1.063a3.542 3.542 0 110-7.083c2.904 0 5.206.283 7.083.743v-6.764c-1.629-.638-3.718-1.063-7.083-1.063a3.542 3.542 0 010-7.083c2.904 0 5.206.283 7.083.744v-7.827a7.083 7.083 0 017.084-7.084h35.416a7.084 7.084 0 017.084 7.084v7.65c6.304 1.098 8.995 3.435 9.597 4.002a3.569 3.569 0 010 5.029c-1.381 1.381-3.222 1.346-5.029 0 0 0-3.683-2.515-11.652-2.515-4.462 0-7.402 1.453-10.802 3.188-3.683 1.806-7.827 3.896-13.99 3.896-1.274 0-2.443 0-3.541-.142v-7.119c1.062.177 2.231.177 3.542.177 4.462 0 7.402-1.452 10.802-3.152 3.683-1.841 7.862-3.931 13.99-3.931v-7.083H50.791v56.666h35.416V91.75c5.313 0 6.977 1.027 7.084 1.098zm-7.084-29.431c-6.127 0-10.306 2.09-13.99 3.931-3.4 1.7-6.339 3.152-10.801 3.152-1.31 0-2.48 0-3.542-.177v7.119c1.098.141 2.267.141 3.542.141 6.162 0 10.306-2.09 13.99-3.895 3.4-1.7 6.339-3.188 10.801-3.188 7.969 0 11.652 2.515 11.652 2.515 1.807 1.38 3.648 1.38 5.029 0 1.382-1.382 1.382-3.613 0-5.03-.743-.743-5.17-4.568-16.68-4.568zm0 14.166c-6.127 0-10.306 2.09-13.99 3.932-3.4 1.7-6.339 3.152-10.801 3.152-1.31 0-2.48 0-3.542-.177v7.118c1.098.142 2.267.142 3.542.142 6.162 0 10.306-2.09 13.99-3.896 3.4-1.7 6.339-3.187 10.801-3.187 7.969 0 11.652 2.514 11.652 2.514 1.807 1.382 3.648 1.382 5.029 0 1.382-1.381 1.382-3.612 0-5.029-.743-.744-5.17-4.569-16.68-4.569z" fill="#fff"/></svg>
